!!!!SEGMENT: Gom2009-Beati_omnes.krn
!!!id: Gom2009
!!!AGN: Motet
!!!voices: 5
!!!COM: Nicolas Gombert
!!!OTL: Beati omnes
**kern	**kern	**kern	**kern	**kern
*part5	*part4	*part3	*part2	*part1
*staff5	*staff4	*staff3	*staff2	*staff1
*I"Bassus	*I"Tenor II	*I"Tenor I	*I"Altus	*I"Superius
*I'B	*I'T. II	*I'T. I	*I'A	*I'S
*clefF4	*clefGv2	*clefGv2	*clefG2	*clefG2
*	*	*	*	*
*k[]	*k[]	*k[]	*k[]	*k[]
*	*	*	*	*
*M2/1	*M2/1	*M2/1	*M2/1	*M2/1
*met(C|)	*met(C|)	*met(C|)	*met(C|)	*met(C|)
!!Section: Prima Pars: Beati omnes
!!!OMD: Prima Pars: Beati omnes
=1	=1	=1	=1	=1
0r	0r	0r	1.d	0r
.	.	.	2d	.
=2	=2	=2	=2	=2
0r	0r	0r	2e	0r
.	.	.	2c	.
.	.	.	[1g	.
=3	=3	=3	=3	=3
0r	0r	0r	2g]	1.g
.	.	.	2e	.
.	.	.	2e	.
.	.	.	2e	2g
=4	=4	=4	=4	=4
0r	0r	0r	2f	2a
.	.	.	1a	2f
.	.	.	.	[1cc
.	.	.	4g	.
.	.	.	4f	.
=5	=5	=5	=5	=5
0r	0r	0r	2e	2cc]
.	.	.	2.f	2a
.	.	.	.	2a
.	.	.	4g	.
.	.	.	[2a	2a
=6	=6	=6	=6	=6
0r	0r	1.d	4a]	1b
.	.	.	4g	.
.	.	.	1g	.
.	.	.	.	1a
.	.	2d	2f#i	.
=7	=7	=7	=7	=7
0r	0r	2e	2g	1g
.	.	2c	2.e	.
.	.	1g	.	2.b
.	.	.	4f	.
.	.	.	4g	.
.	.	.	4e	4g
=8	=8	=8	=8	=8
0r	0r	1d	2f	2a
.	.	.	1g	2b
.	.	2d	.	2a
.	.	2d	2f	[2dd
=9	=9	=9	=9	=9
0r	1.G	1e	1g	4dd]
.	.	.	.	4cc
.	.	.	.	1cc
.	.	1d	2r	.
.	2G	.	2g	2b
=10	=10	=10	=10	=10
0r	2A	2.c	2e	2.cc
.	2F	.	2f	.
.	.	4d	.	4b
.	1c	4e	1g	4cc
.	.	4f	.	4dd
.	.	4g	.	[2ee
.	.	4e	.	.
=11	=11	=11	=11	=11
0r	1A	2f	0a	4ee]
.	.	.	.	4dd
.	.	4e	.	1dd
.	.	4d	.	.
.	2A	1e	.	.
.	2A	.	.	2cc#i
=12	=12	=12	=12	=12
1.D	1B	2d	0r	0dd
.	.	1g	.	.
.	1A	.	.	.
2D	.	2f#i	.	.
=13	=13	=13	=13	=13
2E	2G	0g	0r	2r
2C	1c	.	.	1ee
1G	.	.	.	.
.	2B	.	.	2dd
=14	=14	=14	=14	=14
1E	2c	0r	1r	2ee
.	1A	.	.	2cc
2E	.	.	[1e	1b
2E	2G	.	.	.
=15	=15	=15	=15	=15
1F	2A	2r	2e]	1a
.	2F	1d	2d	.
1E	1G	.	4e	1r
.	.	.	4f	.
.	.	2c	4g	.
.	.	.	4e	.
=16	=16	=16	=16	=16
1D	2A	2d	2f	0r
.	2d	2B	1g	.
2r	2c	1A	.	.
2D	2d	.	2f#i	.
=17	=17	=17	=17	=17
2G	1B	1G	1g	1g
2G	.	.	.	.
2F	1A	1r	1r	2cc
[2A	.	.	.	2cc
=18	=18	=18	=18	=18
4A]	1r	2r	0r	2b
4G	.	.	.	.
1G	.	2G	.	2b
.	2r	2c	.	2g
2F#i	2A	2c	.	2a
=19	=19	=19	=19	=19
1G	2d	1B	2r	1b
.	2d	.	2d	.
1r	2.c	1r	1g	2r
.	.	.	.	2g
.	4B	.	.	.
=20	=20	=20	=20	=20
0r	2A	1c	2f	1cc
.	2A	.	2e	.
.	2d	2f	2r	2b-X
.	2d	2f	2d	2a
=21	=21	=21	=21	=21
1C	1c	2e	2g	1cc
.	.	2e	2g	.
2F	1A	2c	2f	1r
2F	.	2d	[2a	.
=22	=22	=22	=22	=22
2E	2B	1.e	4a]	0r
.	.	.	4g	.
2E	2c	.	1g	.
2C	1A	.	.	.
2D	.	2d	2f#i	.
=23	=23	=23	=23	=23
1E	0G	0B	2g	2r
.	.	.	2e	1g
[1G	.	.	1d	.
.	.	.	.	2f
=24	=24	=24	=24	=24
2G]	0r	0r	1.g	2e
2F	.	.	.	2d
2E	.	.	.	2g
2D	.	.	2f	2a
=25	=25	=25	=25	=25
2.G	0r	1r	2e	2.b
.	.	.	2d	.
4A	.	.	.	4cc
2B	.	2r	2g	2dd
2c	.	[2g	[2e	2ee
=26	=26	=26	=26	=26
1A	2r	2g]	2e]	1cc
.	1c	2f	4d	.
.	.	.	4c	.
2.G	.	2e	1g	1r
.	2B	2d	.	.
4F	.	.	.	.
=27	=27	=27	=27	=27
2D	2A	2f	2r	0r
2E	2G	1e	1g	.
1A	1c	.	.	.
.	.	4d	2f	.
.	.	4c	.	.
=28	=28	=28	=28	=28
1G	1.B	2.g	2e	2r
.	.	.	2d	2dd
.	.	4f	.	.
1r	.	1d	2.g	2dd
.	2G	.	.	2b
.	.	.	4f	.
=29	=29	=29	=29	=29
2r	2A	0r	2e	2cc
2G	1B	.	2d	2dd
2G	.	.	2.e	2g
2E	4A	.	.	[2cc
.	4G	.	4f	.
=30	=30	=30	=30	=30
2F	2A	2r	1d	2cc]
2G	2B	2g	.	4b
.	.	.	.	4a
2C	2.c	2g	1e	1g
2C	.	2e	.	.
.	4B	.	.	.
=31	=31	=31	=31	=31
2D	2A	2f	2d	0r
2E	2G	2g	4c	.
.	.	.	4B	.
1F	1A	2c	2A	.
.	.	2d	[2d	.
=32	=32	=32	=32	=32
1E	1G	2e	2d]	1r
.	.	1g	2c#i	.
2D	2A	.	1d	1dd
2D	2A	2f	.	.
=33	=33	=33	=33	=33
1G	1B	2d	1r	2dd
.	.	1e	.	2b
1F	1A	.	2r	2cc
.	.	2A	2d	2dd
=34	=34	=34	=34	=34
1E	1G	1B	2e	2g
.	.	.	1g	2g
1r	1r	1A	.	2a
.	.	.	2f	[2cc
=35	=35	=35	=35	=35
0r	1G	1r	2e	2cc]
.	.	.	2d	2b
.	2A	1c	2f	2a
.	2c	.	2e	4g
.	.	.	.	4a
=36	=36	=36	=36	=36
0r	1B	1d	1f	4b
.	.	.	.	4cc
.	.	.	.	1dd
.	1A	2f	2.a	.
.	.	2e	.	2cc#i
.	.	.	4g	.
=37	=37	=37	=37	=37
1r	1B	0d	2f	0dd
.	.	.	1g	.
1D	1A	.	.	.
.	.	.	2f#i	.
=38	=38	=38	=38	=38
2E	2G	1r	2g	0r
2C	1c	.	2e	.
[1G	.	2r	1d	.
.	2B	2d	.	.
=39	=39	=39	=39	=39
2G]	2c	2e	1c	0r
2F	2A	2c	.	.
1E	2B	[1g	1r	.
.	2G	.	.	.
=40	=40	=40	=40	=40
1D	1.d	2g]	1r	1a
.	.	2f	.	.
1r	.	1e	2r	2b
.	2c	.	2e	2g
=41	=41	=41	=41	=41
0r	1B	2d	2f	1dd
.	.	2d	2d	.
.	2A	2e	1a	1cc
.	2A	2c	.	.
=42	=42	=42	=42	=42
1r	2B	1.g	1d	2.b
.	2G	.	.	.
.	.	.	.	4g
1D	1d	.	1r	1a
.	.	2f	.	.
=43	=43	=43	=43	=43
2E	2B	1e	1r	0g
2C	1c	.	.	.
[1G	.	2.d	2r	.
.	2B	.	2d	.
.	.	8cL	.	.
.	.	8BJ	.	.
=44	=44	=44	=44	=44
2G]	2A	2c	2e	1r
2F	2A	1d	2d	.
1E	2B	.	1g	2r
.	2G	2c	.	2g
=45	=45	=45	=45	=45
1D	1.d	2A	2.f	4a
.	.	.	.	4f
.	.	2d	.	1ff
.	.	.	4e	.
1r	.	2f	2d	.
.	2c	[2g	2e	[2ee
=46	=46	=46	=46	=46
0r	1B	4g]	1g	4ee]
.	.	4f	.	4dd
.	.	2d	.	1dd
.	1A	1e	1a	.
.	.	.	.	2cc#i
=47	=47	=47	=47	=47
1G	1B	0d	1g	[0dd
2G	2B	.	1r	.
2F	2A	.	.	.
=48	=48	=48	=48	=48
2G	1B	1r	1g	0dd]
2G	.	.	.	.
[1B-X	1r	1d	2g	.
.	.	.	2f	.
=49	=49	=49	=49	=49
2B-]	0r	2d	2g	0r
2A	.	2c	2a	.
2.G	.	2d	2b-i	.
.	.	2d	2b-i	.
4F	.	.	.	.
=50	=50	=50	=50	=50
4D	2r	1f	0a	1dd
4E	.	.	.	.
4F	2A	.	.	.
4G	.	.	.	.
1A	2c	1e	.	2dd
.	2c	.	.	2cc
=51	=51	=51	=51	=51
2D	2B	[0d	2r	1.dd
2F	2A	.	2a	.
1G	1B	.	2a	.
.	.	.	2g	2dd
=52	=52	=52	=52	=52
1D	1A	1d]	2a	1ff
.	.	.	2a	.
1r	1r	2r	2cc	2ee
.	.	2d	[2b	[2dd
=53	=53	=53	=53	=53
1r	0r	2f	4b]	4dd]
.	.	.	4a	4cc
.	.	2f	1a	2a
2r	.	2.e	.	1b
2E	.	.	2g#i	.
.	.	4d	.	.
=54	=54	=54	=54	=54
1.F	1A	4c	1a	1a
.	.	4B	.	.
.	.	1A	.	.
.	2c	.	1r	1r
2E	2c	[2G	.	.
=55	=55	=55	=55	=55
2D	2B	4G]	2r	0r
.	.	4F	.	.
2C	1A	1c	2e	.
1D	.	.	2f	.
.	4G	2B	2f	.
.	4F	.	.	.
=56	=56	=56	=56	=56
0C	2G	2c	2e	1g
.	2.c	1e	4d	.
.	.	.	4c	.
.	.	.	2.e	2cc
.	4B	.	.	.
.	2A	4d	.	2cc
.	.	4c	4f	.
=57	=57	=57	=57	=57
0r	2G	2d	2g	2b
.	2A	2c	2f	1a
.	1E	2.B	1e	.
.	.	.	.	2g#i
.	.	4G	.	.
=58	=58	=58	=58	=58
1.D	0A	1d	1.f	[0a
.	.	1r	.	.
2C	.	.	2e	.
=59	=59	=59	=59	=59
2D	0r	1.d	1f	0a]
2D	.	.	.	.
2AA	.	.	2.e	.
[2A	.	2c	.	.
.	.	.	8dL	.
.	.	.	8cJ	.
=60	=60	=60	=60	=60
2A]	1r	2d	1B	0r
2G	.	2d	.	.
2A	2r	2c	1A	.
2F	[2d	4B	.	.
.	.	4A	.	.
=61	=61	=61	=61	=61
1E	2d]	2G	2B	0r
.	2c	1g	2G	.
1D	2d	.	1A	.
.	2d	2f	.	.
=62	=62	=62	=62	=62
0r	2G	2g	1r	1.dd
.	1B	2g	.	.
.	.	[1f	2r	.
.	2A	.	[2a	2cc
=63	=63	=63	=63	=63
2r	1B	2f]	2a]	2dd
1G	.	2d	2g	2dd
.	2A	2e	2a	2cc
2F	2c	2f	2a	2a
=64	=64	=64	=64	=64
2G	2B	1d	2g	1b-i
2G	2G	.	2e	.
2F	2A	2r	1f	2a
2D	2A	[2d	.	2f
=65	=65	=65	=65	=65
2.E	2.G	2d]	1e	0g
.	.	2c	.	.
4C	4A	.	.	.
1G	1B	2d	2d	.
.	.	2d	2g	.
=66	=66	=66	=66	=66
2A	2A	2c	2e	0r
2F	1d	2A	2f	.
1E	.	2B	4g	.
.	.	.	4e	.
.	2c#i	2G	[2g	.
=67	=67	=67	=67	=67
1D	0d	1A	2g]	1dd
.	.	.	2f#i	.
2.G	.	2B	[1g	2dd
.	.	[2d	.	2b
4F	.	.	.	.
=68	=68	=68	=68	=68
2E	2.G	4d]	1g]	1ee
.	.	4c	.	.
2C	.	1c	.	.
.	4A	.	.	.
1G	4B	.	2r	1dd
.	4A	.	.	.
.	4G	2B	2g	.
.	4F	.	.	.
=69	=69	=69	=69	=69
1C	2E	1c	2g	2r
.	1G	.	2e	2g
1r	.	1r	1a	2cc
.	2F	.	.	2cc
=70	=70	=70	=70	=70
0r	2G	0r	2g	2b
.	2E	.	2c	2g
.	1D	.	2f	2a
.	.	.	2f	2b
=71	=71	=71	=71	=71
0r	1A	0r	2e	2.cc
.	.	.	2c	.
.	.	.	.	8bL
.	.	.	.	8aJ
.	1G	.	2d	1b
.	.	.	2e	.
=72	=72	=72	=72	=72
0r	0r	1d	2.f	1a
.	.	.	4e	.
.	.	2d	2f	2.dd
.	.	2B	[2g	.
.	.	.	.	4cc
=73	=73	=73	=73	=73
0r	0r	1e	2g]	2b
.	.	.	4f	4a
.	.	.	4e	4g
.	.	1d	2.f	1a
.	.	.	4g	.
=74	=74	=74	=74	=74
0r	1d	1r	2a	2f
.	.	.	4g	2.ff
.	.	.	4f	.
.	2d	1d	2a	.
.	.	.	.	4ee
.	2B	.	[2b-i	[2dd
=75	=75	=75	=75	=75
0r	1e	2g	2b-]	2dd]
.	.	2g	4a	2cc
.	.	.	4g	.
.	1d	2.f	1a	2.dd
.	.	4e	.	4cc
=76	=76	=76	=76	=76
1G	1r	2d	0g	4b
.	.	.	.	4a
.	.	2B	.	2g
2G	1G	2d	.	2b
2E	.	[2e	.	[2g
=77	=77	=77	=77	=77
1A	2c	2e]	0r	2g]
.	2c	4d	.	2f#i
.	.	4c	.	.
1G	1B	1d	.	1g
=78	=78	=78	=78	=78
2r	2A	1c	0r	2r
2C	2G	.	.	2e
2F	4A	2r	.	2a
.	4B	.	.	.
2F	4c	2c	.	2a
.	4A	.	.	.
=79	=79	=79	=79	=79
2E	2B	1e	0r	2g
2C	2c	.	.	1a
2D	1B	2f	.	.
2E	.	[2e	.	2g#i
=80	=80	=80	=80	=80
2.F	2.A	4e]	2r	1a
.	.	4d	.	.
.	.	1d	2d	.
4D	4F	.	.	.
1E	1G	.	2g	2r
.	.	2c#i	2g	2g
=81	=81	=81	=81	=81
1D	2A	1d	2f	2dd
.	2B	.	2d	2dd
1r	1A	1r	2e	2cc
.	.	.	2f	2a
=82	=82	=82	=82	=82
2r	0G	1r	2g	2b
2C	.	.	4f	2cc
.	.	.	4e	.
2G	.	2r	1d	2dd
2G	.	2G	.	4cc
.	.	.	.	4b
=83	=83	=83	=83	=83
2F	0r	2d	1f	2a
2D	.	2d	.	2f
2E	.	2c	2e	2g
2F	.	2A	[2d	[2a
=84	=84	=84	=84	=84
2G	1r	2B	2d]	4a]
.	.	.	.	4g
2E	.	2c	2G	1g
1D	2r	1d	1A	.
.	2d	.	.	2f#i
=85	=85	=85	=85	=85
1G	2d	2B	2G	0g
.	2B	2d	2g	.
1C	2.c	2.e	2g	.
.	.	.	2e	.
.	4B	4d	.	.
=86	=86	=86	=86	=86
0r	2A	2c	2f	0r
.	2G	2B	2.e	.
.	2A	2c	.	.
.	.	.	4c	.
.	2B	2g	2d	.
=87	=87	=87	=87	=87
0r	2.c	2g	1e	2r
.	.	2e	.	2cc
.	4B	.	.	.
.	1A	2f	1c	2cc
.	.	2e	.	2a
=88	=88	=88	=88	=88
0r	2G	1g	2d	1b
.	2G	.	2e	.
.	2A	2.c	2f	2a
.	[2c	.	2e	2g
.	.	4d	.	.
=89	=89	=89	=89	=89
0r	4c]	4e	2r	2a
.	4B	4f	.	.
.	2G	1g	2e	2b
.	1A	.	2e	1cc
.	.	2f#i	2c	.
=90	=90	=90	=90	=90
2r	1G	2g	2.d	0b
2G	.	2B	.	.
.	.	.	4c	.
2G	2r	2B	2d	.
2E	2c	2G	[2e	.
=91	=91	=91	=91	=91
1F	2c	1A	2e]	0r
.	2A	.	2d	.
2E	1B	1G	2e	.
2G	.	.	2d	.
=92	=92	=92	=92	=92
2A	1c	2r	2f	2r
2.c	.	4c	2e	2g
.	.	4d	.	.
.	1r	4e	2A	2a
4B	.	4f	.	.
2G	.	[2g	[2e	2b
=93	=93	=93	=93	=93
1A	2r	2g]	2e]	1cc
.	2A	2f	2c	.
2G	2B	2.g	2.d	1b
[2B-i	[2d	.	.	.
.	.	4f	4e	.
=94	=94	=94	=94	=94
4B-]	4d]	2d	4f	2.dd
4A	4c	.	4g	.
2F	2A	2f	1a	.
.	.	.	.	4cc
2.G	1B	2.d	.	4b
.	.	.	.	4a
.	.	.	2g	[2dd
4F	.	4e	.	.
=95	=95	=95	=95	=95
2D	1A	2f	0a	2dd]
2A	.	2e	.	2cc#i
1D	2r	2d	.	[1dd
.	2F	2A	.	.
=96	=96	=96	=96	=96
0r	2G	2B	2r	0dd_
.	2.B-i	2.d	2f	.
.	.	.	2g	.
.	4A	4c	.	.
.	4G	4B	[2b-i	.
.	4F	4A	.	.
=97	=97	=97	=97	=97
1r	1B-i	1G	4b-]	1dd]
.	.	.	4a	.
.	.	.	1g	.
1D	1A	1d	.	2r
.	.	.	2f	2f
=98	=98	=98	=98	=98
2E	2.G	2.B-i	2e	2g
2.G	.	.	2.d	1b-i
.	4A	4A	.	.
.	4B	2G	.	.
4F	4c	.	4e	.
2D	2d	2F	2f	[2a
=99	=99	=99	=99	=99
1E	2B	2G	2e	2a]
.	2G	4F	2c	1g
.	.	4E	.	.
2D	1A	4F	1d	.
.	.	4D	.	.
2D	.	2d	.	2f#i
=100	=100	=100	=100	=100
2E	[0Gl	1.B	2r	[0gl
2.G	.	.	2d	.
.	.	.	2e	.
4F	.	.	.	.
4E	.	[2e	[2g	.
4D	.	.	.	.
=101	=101	=101	=101	=101
2C	0G_	4e]	4g]	0g_
.	.	4d	4f	.
2G	.	2B	2d	.
1C	.	1c	1e	.
=102	=102	=102	=102	=102
00Gl	00G]	00Bl	00dl	00g]
==	==	==	==	==
*-	*-	*-	*-	*-
!!!system-decoration: [*]
!!!RDF**kern: i = editorial accidental
!!!RDF**kern: l = terminal long
!!!ENC: Benjamin Ory
!!!END: 2025/2/26
!!!EED: Benjamin Ory
!!!EEV: 2025/02/26
!!!YEC: Copyright 2025 Benjamin Ory, All Rights Reserved
!!!ONB: Translated from MusicXML on 2025/02/26